X: 824
T: The Whim
T: Bartholemew Fair
N: "Bartholemew Fair" and "1728" handwritten above title.
P: Longways for as many as will
%R: jig
B: "The Dancing-Master: Containing Directions and Tunes for Dancing" printed by W. Pearson for John Walsh, London ca. 1709
S: 7: DMDfD http://digital.nls.uk/special-collections-of-printed-music/pageturner.cfm?id=89751228 p.170
Z: 2013 John Chambers <jc:trillian.mit.edu>
M: 6/4
L: 1/4
K: G
% - - - - - - - - - - - - - - - - - - - - - - - - -
d |\
BGG G>AB | c2B A2G | FAA A2B |\
c>de dBG | c>dB ABc | BGG G2 |]\
B |\
c>d e/f/ g>fe | dBc A2G | cAA A>Bc |\
d3 c3 | B>cB A2d | BGG G2 |]
% - - - - - - - - - - - - - - - - - - - - - - - - -
%%begintext align
%% The two men take hands and fall back, the two we. do the same at the same time, and change places,
%% which makes the men improper; then take hands and fall back as before, and change into their own sides,
%% which makes the men proper as at first :| The two men back to back, the two we. do the same at the
%% same time, all four turn S. then right and left with your Partners, till the 1. cu. come into the 2. cu. place.
%% [DMDfD]
%%endtext
%%sep 1 8 500

%%sep 1 1 500
%%sep 1 1 500
